X: 120
T: Rotate ex D - Tryumfuy niebo - a
C: Tadeusz Mrozowski
L: 1/4
M: 3/4
N: Derived from pl-cz--i-57--002_mrozowski-tadeusz--rotate-ex-d-tryumfuy-niebo-a.krn
V: 1 clef=treble
V: 2 clef=treble
V: 3 clef=treble
V: 4 clef=treble
V: 5 clef=bass
V: 6 clef=treble
V: 7 clef=treble
V: 8 clef=bass
V: 9 clef=treble
V: 10 clef=treble
V: 11 clef=bass
K: F
[V:1] cfc | 
[V:2] AcA | 
[V:3] x3 | 
[V:4] x3 | 
[V:5] x3 | 
[V:6] x3 | 
[V:7] x3 | 
[V:8] x3 | 
[V:9] cfc | 
[V:10] AcA | 
[V:11] F,F,F, | 
[V:1] A/B/A/B/c | 
[V:2] F/G/F/G/A | 
[V:3] x3 | 
[V:4] x3 | 
[V:5] x3 | 
[V:6] x3 | 
[V:7] x3 | 
[V:8] x3 | 
[V:9] A/B/A/B/c | 
[V:10] F/G/F/G/A | 
[V:11] F,zz | 
[V:1] d/c/B/A/G/F/ | 
[V:2] B/A/G/F/ C/C/ | 
[V:3] x3 | 
[V:4] x3 | 
[V:5] x3 | 
[V:6] x3 | 
[V:7] x3 | 
[V:8] x3 | 
[V:9] d/c/B/A/G/F/ | 
[V:10] B/A/G/F/E/D/ | 
[V:11] B,/A,/G,/F,/E,/D,/ | 
[V:1] CC/C/C | 
[V:2] C,C,/C,/C, | 
[V:3] x3 | 
[V:4] x3 | 
[V:5] x3 | 
[V:6] x3 | 
[V:7] x3 | 
[V:8] x3 | 
[V:9] E/F/G/E/C | 
[V:10] C/D/E/C/C | 
[V:11] C,C,C, | 
[V:1] cfa | 
[V:2] ccf | 
[V:3] x3 | 
[V:4] x3 | 
[V:5] x3 | 
[V:6] x3 | 
[V:7] x3 | 
[V:8] x3 | 
[V:9] cfa | 
[V:10] ccf | 
[V:11] C,F,D, | 
[V:1] g/f/e/d/c | 
[V:2] e/d/c/B/c | 
[V:3] x3 | 
[V:4] x3 | 
[V:5] x3 | 
[V:6] x3 | 
[V:7] x3 | 
[V:8] x3 | 
[V:9] g/f/e/d/c | 
[V:10] e/d/c/=B/c | 
[V:11] G,A,/B,/C | 
[V:1] !fermata!z3 | 
[V:2] !fermata!z3 | 
[V:3] x3 | 
[V:4] x3 | 
[V:5] x3 | 
[V:6] x3 | 
[V:7] x3 | 
[V:8] x3 | 
[V:9] _eed | 
[V:10] cc=B | 
[V:11] CC=B, | 
[V:1] c=B2 | 
[V:2] cG2 | 
[V:3] x3 | 
[V:4] x3 | 
[V:5] x3 | 
[V:6] x3 | 
[V:7] x3 | 
[V:8] x3 | 
[V:9] (3_e/d/c/=B2 | 
[V:10] cG2 | 
[V:11] CG,G, | 
[V:1] czz :|]|:  
[V:2] Czz :|]|:  
[V:3] x3 :|]|:  
[V:4] x3 :|]|:  
[V:5] x3 :|]|:  
[V:6] x3 :|]|:  
[V:7] x3 :|]|:  
[V:8] x3 :|]|:  
[V:9] c2z :|]|:  
[V:10] Ezz :|]|:  
[V:11] C,2z :|]|:  
[V:1] CCC | 
[V:2] C,C,C, | 
[V:3] x3 | 
[V:4] x3 | 
[V:5] x3 | 
[V:6] x3 | 
[V:7] x3 | 
[V:8] x3 | 
[V:9] GG/A/G/A/ | 
[V:10] EE/F/E/F/ | 
[V:11] C,C,C, | 
[V:1] Czz | 
[V:2] C,zz | 
[V:3] x3 | 
[V:4] x3 | 
[V:5] x3 | 
[V:6] x3 | 
[V:7] x3 | 
[V:8] x3 | 
[V:9] _B/A/B2 | 
[V:10] G/F/G2 | 
[V:11] C,zz | 
[V:1] !fermata!z3 | 
[V:2] !fermata!z3 | 
[V:3] x3 | 
[V:4] x3 | 
[V:5] x3 | 
[V:6] x3 | 
[V:7] x3 | 
[V:8] x3 | 
[V:9] A/c/B/A/G/F/ | 
[V:10] F/A/G/F/E/D/ | 
[V:11] F,zz | 
[V:1] CC/C/C | 
[V:2] C,C,/C,/C, | 
[V:3] x3 | 
[V:4] x3 | 
[V:5] x3 | 
[V:6] x3 | 
[V:7] x3 | 
[V:8] x3 | 
[V:9] E/F/G/E/C | 
[V:10] C/D/E/C/C | 
[V:11] C,C,C, | 
[V:1] dzz | 
[V:2] Bzz | 
[V:3] x3 | 
[V:4] x3 | 
[V:5] x3 | 
[V:6] x3 | 
[V:7] x3 | 
[V:8] x3 | 
[V:9] c/f/ a/c/B/A/ | 
[V:10] cf/A/G/F/ | 
[V:11] B,,/B,/B,,/B,/B,,/B,/ | 
[V:1] czz | 
[V:2] Azz | 
[V:3] x3 | 
[V:4] x3 | 
[V:5] x3 | 
[V:6] x3 | 
[V:7] x3 | 
[V:8] x3 | 
[V:9] B/e/ g/B/A/G/ | 
[V:10] Be/G/F/E/ | 
[V:11] A,,/A,/A,,/A,/A,,/A,/ | 
[V:1] BAG | 
[V:2] GFC | 
[V:3] x3 | 
[V:4] x3 | 
[V:5] x3 | 
[V:6] x3 | 
[V:7] x3 | 
[V:8] x3 | 
[V:9] (3A/G/F/G2 | 
[V:10] FE2 | 
[V:11] F,C,C, | 
[V:1] Fzz |]  
[V:2] A,zz |]  
[V:3] x3 |]  
[V:4] x3 |]  
[V:5] x3 |]  
[V:6] x3 |]  
[V:7] x3 |]  
[V:8] x3 |]  
[V:9] Fzz |]  
[V:10] Fzz |]  
[V:11] F,,zz |]  
[V:1]  [K:A] x3 [I:setbarnb 19]| 
[V:2]  [K:A] x3 | 
[V:3]  [K:A] x3 | 
[V:4]  [K:A] x3 | 
[V:5]  [K:A] x3 | 
[V:6]  [K:A] x3 | 
[V:7]  [K:A] x3 | 
[V:8]  [K:A] x3 | 
[V:9]  [K:A] AEc | 
[V:10]  [K:A] AEA | 
[V:11]  [K:A] A,,A,,A,, | 
[V:1] x3 | 
[V:2] x3 | 
[V:3] x3 | 
[V:4] x3 | 
[V:5] x3 | 
[V:6] x3 | 
[V:7] x3 | 
[V:8] x3 | 
[V:9] B/A/G/F/E | 
[V:10] G/F/E/^D/E | 
[V:11] A,,A,,A,, | 
[V:1] x3 | 
[V:2] x3 | 
[V:3] x3 | 
[V:4] x3 | 
[V:5] x3 | 
[V:6] x3 | 
[V:7] x3 | 
[V:8] x3 | 
[V:9] B/>d/ce | 
[V:10] G/>B/Ac | 
[V:11] E,E,E, | 
[V:1] x3 | 
[V:2] x3 | 
[V:3] x3 | 
[V:4] x3 | 
[V:5] x3 | 
[V:6] x3 | 
[V:7] x3 | 
[V:8] x3 | 
[V:9] dcz | 
[V:10] BAz | 
[V:11] E,A,2 | 
[V:1] x3 | 
[V:2] x3 | 
[V:3] x3 | 
[V:4] x3 | 
[V:5] x3 | 
[V:6] x3 | 
[V:7] x3 | 
[V:8] x3 | 
[V:9] e/d/ce | 
[V:10] c/B/Ac | 
[V:11] A,A,A, | 
[V:1] x3 | 
[V:2] x3 | 
[V:3] x3 | 
[V:4] x3 | 
[V:5] x3 | 
[V:6] x3 | 
[V:7] x3 | 
[V:8] x3 | 
[V:9] d/c/BB | 
[V:10] B/A/GG | 
[V:11] A,E,E, | 
[V:1] x3 | 
[V:2] x3 | 
[V:3] x3 | 
[V:4] x3 | 
[V:5] x3 | 
[V:6] x3 | 
[V:7] x3 | 
[V:8] x3 | 
[V:9] d/c/Bd | 
[V:10] B/A/GB | 
[V:11] E,E,E, | 
[V:1] x3 | 
[V:2] x3 | 
[V:3] x3 | 
[V:4] x3 | 
[V:5] x3 | 
[V:6] x3 | 
[V:7] x3 | 
[V:8] x3 | 
[V:9] c/B/A2 | 
[V:10] A/E/C2 | 
[V:11] A,,A,,A,, | 
[V:1] x3 | 
[V:2] x3 | 
[V:3] x3 | 
[V:4] x3 | 
[V:5] x3 | 
[V:6] x3 | 
[V:7] x3 | 
[V:8] x3 | 
[V:9] a/g/g/f/f/e/ | 
[V:10] f/e/e/d/d/c/ | 
[V:11] A,^G,F, | 
[V:1] x3 | 
[V:2] x3 | 
[V:3] x3 | 
[V:4] x3 | 
[V:5] x3 | 
[V:6] x3 | 
[V:7] x3 | 
[V:8] x3 | 
[V:9] e/d/d/c/c | 
[V:10] c/B/B/A/A | 
[V:11] E,D,C, | 
[V:1] x3 | 
[V:2] x3 | 
[V:3] x3 | 
[V:4] x3 | 
[V:5] x3 | 
[V:6] x3 | 
[V:7] x3 | 
[V:8] x3 | 
[V:9] B/d/ c/B/ A/G/ | 
[V:10] G/B/ A/G/F/G/ | 
[V:11] D,B,,E, | 
[V:1] x3 |]  
[V:2] x3 |]  
[V:3] x3 |]  
[V:4] x3 |]  
[V:5] x3 |]  
[V:6] x3 |]  
[V:7] x3 |]  
[V:8] x3 |]  
[V:9] A2z |]  
[V:10] A2z |]  
[V:11] A,,/A,/E,/C,/A,, |]  

